Papirus/22x22/panel/si-syncing-9.svg

<?xml version="1.0" encoding="UTF-8" standalone="no"?>
<svg id="svg2" xmlns:rdf="http://www.w3.org/1999/02/22-rdf-syntax-ns#" xmlns="http://www.w3.org/2000/svg" viewBox="0 0 22 22" width="22" version="1.1" xmlns:cc="http://creativecommons.org/ns#" height="22" xmlns:dc="http://purl.org/dc/elements/1.1/">
 <metadata id="metadata12">
  <rdf:RDF>
   <cc:Work rdf:about="">
    <dc:format>image/svg+xml</dc:format>
    <dc:type rdf:resource="http://purl.org/dc/dcmitype/StillImage"/>
    <dc:title/>
   </cc:Work>
  </rdf:RDF>
 </metadata>
 <path id="path6" d="m3 11a8 8 0 0 0 8 8 8 8 0 0 0 8 -8 8 8 0 0 0 -8 -8 8 8 0 0 0 -8 8zm2 0a6 6 0 0 1 2.0234 -4.4863 1.5 1.5 0 0 1 -0.0234 -0.2637 1.5 1.5 0 0 1 1.5 -1.5 1.5 1.5 0 0 1 1.053 0.4336 6 6 0 0 1 1.447 -0.1836 6 6 0 0 1 3.553 1.1738 1.5 1.5 0 0 1 0.697 -0.1738 1.5 1.5 0 0 1 1.5 1.5 1.5 1.5 0 0 1 -0.332 0.9395 6 6 0 0 1 0.582 2.5605 6 6 0 0 1 -3.002 5.191 1.5 1.5 0 0 1 0.002 0.059 1.5 1.5 0 0 1 -1.5 1.5 1.5 1.5 0 0 1 -1.3008 -0.75978 6 6 0 0 1 -0.19921 0.0098 6 6 0 0 1 -6 -6zm1 0a5 5 0 0 0 5 5 5 5 0 0 0 0.02148 -0.000001 1.5 1.5 0 0 1 0.76172 -1.0645l-0.553-3.461a1.5 1.5 0 0 1 -1.2305 -1.4746 1.5 1.5 0 0 1 0.22656 -0.79102l-1.2338-1.543a1.5 1.5 0 0 1 -0.4922 0.084 1.5 1.5 0 0 1 -0.9648 -0.3516 5 5 0 0 0 -1.5352 3.6016zm3.773-3.959 1.235 1.543a1.5 1.5 0 0 1 0.492 -0.084 1.5 1.5 0 0 1 0.898 0.3008l1.3984-0.93359a1.5 1.5 0 0 1 -0.046 -0.3672 1.5 1.5 0 0 1 0.121 -0.5898 5 5 0 0 0 -2.871 -0.9102 5 5 0 0 0 -1.0074 0.1074 1.5 1.5 0 0 1 0.0074 0.1426 1.5 1.5 0 0 1 -0.2262 0.791zm2.4434 4.2734 0.55469 3.4609a1.5 1.5 0 0 1 0.84765 0.47854 5 5 0 0 0 2.3809 -4.2539 5 5 0 0 0 -0.43945 -2.0332 1.5 1.5 0 0 1 -0.31055 0.0332 1.5 1.5 0 0 1 -0.89844 -0.30078l-1.3984 0.93359a1.5 1.5 0 0 1 0.04687 0.36719 1.5 1.5 0 0 1 -0.7832 1.3145z" fill="#fff"/>
</svg>

<?xml version="1.0" encoding="UTF-8" standalone="no"?>
<svg xmlns:dc="http://purl.org/dc/elements/1.1/" xmlns:cc="http://creativecommons.org/ns#" xmlns:rdf="http://www.w3.org/1999/02/22-rdf-syntax-ns#" xmlns:svg="http://www.w3.org/2000/svg" xmlns="http://www.w3.org/2000/svg" id="svg2" viewBox="0 0 22 22" version="1.1" width="22" height="22">
    <metadata id="metadata12">
        <rdf:RDF>
            <cc:Work rdf:about="">
                <dc:format>
                    image/svg+xml
                </dc:format>
                <dc:type rdf:resource="http://purl.org/dc/dcmitype/StillImage"/>
                <dc:title/>
            </cc:Work>
        </rdf:RDF>
    </metadata>
    <path d="m 3,11 a 8,8 0 0 0 8,8 8,8 0 0 0 8,-8 8,8 0 0 0 -8,-8 8,8 0 0 0 -8,8 z m 2,0 A 6,6 0 0 1 7.0234,6.5137 1.5,1.5 0 0 1 7,6.25 1.5,1.5 0 0 1 8.5,4.75 1.5,1.5 0 0 1 9.553,5.1836 6,6 0 0 1 11,5 6,6 0 0 1 14.553,6.1738 1.5,1.5 0 0 1 15.25,6 1.5,1.5 0 0 1 16.75,7.5 1.5,1.5 0 0 1 16.418,8.4395 6,6 0 0 1 17,11 6,6 0 0 1 13.998,16.1914 1.5,1.5 0 0 1 14,16.25 a 1.5,1.5 0 0 1 -1.5,1.5 1.5,1.5 0 0 1 -1.3008,-0.75978 6,6 0 0 1 -0.19921,0.0098 6,6 0 0 1 -6,-6 z m 1,0 a 5,5 0 0 0 5,5 5,5 0 0 0 0.02148,-10e-7 1.5,1.5 0 0 1 0.76172,-1.0645 l -0.553,-3.461 a 1.5,1.5 0 0 1 -1.2305,-1.4746 1.5,1.5 0 0 1 0.22656,-0.79102 l -1.2338,-1.543 a 1.5,1.5 0 0 1 -0.4922,0.084 1.5,1.5 0 0 1 -0.9648,-0.3516 5,5 0 0 0 -1.5352,3.6016 z M 9.773,7.041 11.008,8.584 A 1.5,1.5 0 0 1 11.5,8.5 1.5,1.5 0 0 1 12.398,8.8008 l 1.3984,-0.93359 a 1.5,1.5 0 0 1 -0.046,-0.3672 1.5,1.5 0 0 1 0.121,-0.5898 5,5 0 0 0 -2.871,-0.9102 A 5,5 0 0 0 9.9926,6.10743 1.5,1.5 0 0 1 10.0004,6.25 1.5,1.5 0 0 1 9.77384,7.04102 Z m 2.4434,4.2734 0.55469,3.4609 a 1.5,1.5 0 0 1 0.84765,0.47854 5,5 0 0 0 2.3809,-4.2539 5,5 0 0 0 -0.43945,-2.0332 1.5,1.5 0 0 1 -0.31055,0.0332 1.5,1.5 0 0 1 -0.89844,-0.30078 l -1.3984,0.93359 a 1.5,1.5 0 0 1 0.04687,0.36719 1.5,1.5 0 0 1 -0.7832,1.3145 z" id="path6" style="fill:#ffffff;fill-opacity:1;opacity:1"/>
</svg>
